static/heart.svg

<svg width="30px" height="27px" viewBox="0 0 30 27" version="1.1" xmlns="http://www.w3.org/2000/svg" xmlns:xlink="http://www.w3.org/1999/xlink">
    <desc>Created with Sketch.</desc>
    <defs></defs>
    <g id="Page-1" stroke="none" stroke-width="1" fill="none" fill-rule="evenodd">
        <g id="Home" transform="translate(-441.000000, -99.000000)" fill="#FFFFFF" fill-rule="nonzero">
            <g id="Group-3" transform="translate(363.000000, 82.000000)">
                <g id="heart" transform="translate(78.000000, 17.000000)">
                    <path d="M13.8204524,25.4496291 C13.1758034,24.7272738 11.5660062,23.319156 10.2431513,22.3203432 C6.32377535,19.3610121 5.79032761,18.9327088 4.19897036,17.4676898 C1.26524181,14.7667071 0.0193291732,12.0531837 0.0236349454,8.37379029 C0.0256942278,6.57765858 0.148127925,5.88567244 0.651201248,4.8269636 C1.50477379,3.0307383 2.76201248,1.69603986 4.36942278,0.87967591 C5.50792512,0.301538995 6.06940718,0.0446412478 7.97059282,0.0341126516 C9.95934477,0.0231161179 10.3779875,0.254979203 11.5478939,0.897551127 C12.9717941,1.67966205 14.4373947,3.35122877 14.74039,4.53862045 L14.9275039,5.27197227 L15.3889236,4.26197574 C17.9965367,-1.44559965 26.3217941,-1.36020104 29.2189704,4.40380763 C30.1380655,6.23232062 30.2389704,10.1366516 29.4240094,12.3359584 C28.360858,15.2048371 26.364103,17.3920243 21.7481747,20.7436742 C18.7209828,22.9417643 15.2948986,26.2674905 15.0564431,26.7345858 C14.7795632,27.2768787 15.0431981,26.8196101 13.8204524,25.4496291 Z" id="Shape"></path>
                </g>
            </g>
        </g>
    </g>
</svg>

<svg width="30" height="27" xmlns="http://www.w3.org/2000/svg">
  <path
    d="M13.82 25.45c-.644-.723-2.254-2.13-3.577-3.13-3.92-2.959-4.453-3.387-6.044-4.852C1.265 14.767.019 12.053.024 8.374.026 6.578.148 5.886.65 4.827 1.505 3.031 2.762 1.696 4.37.88 5.508.302 6.07.045 7.971.034c1.988-.01 2.407.221 3.577.864 1.424.782 2.89 2.453 3.192 3.64l.188.734.46-1.01c2.609-5.708 10.934-5.622 13.831.142.92 1.828 1.02 5.733.205 7.932-1.063 2.869-3.06 5.056-7.676 8.408-3.027 2.198-6.453 5.523-6.692 5.99-.276.543-.013.086-1.236-1.284z"
    fill="#FFF"
    fill-rule="nonzero"
  />
</svg>;
